src/assets/help-settings.svg

<svg width="17" height="20" viewBox="0 0 17 20" fill="none" xmlns="http://www.w3.org/2000/svg">
<path d="M9 20L8.75 17H8.5C6.13333 17 4.125 16.175 2.475 14.525C0.825 12.875 0 10.8667 0 8.5C0 6.13333 0.825 4.125 2.475 2.475C4.125 0.825 6.13333 0 8.5 0C9.68333 0 10.7875 0.220833 11.8125 0.6625C12.8375 1.10417 13.7375 1.7125 14.5125 2.4875C15.2875 3.2625 15.8958 4.1625 16.3375 5.1875C16.7792 6.2125 17 7.31667 17 8.5C17 9.75 16.7958 10.95 16.3875 12.1C15.9792 13.25 15.4208 14.3167 14.7125 15.3C14.0042 16.2833 13.1625 17.175 12.1875 17.975C11.2125 18.775 10.15 19.45 9 20ZM11 16.35C12.1833 15.35 13.1458 14.1792 13.8875 12.8375C14.6292 11.4958 15 10.05 15 8.5C15 6.68333 14.3708 5.14583 13.1125 3.8875C11.8542 2.62917 10.3167 2 8.5 2C6.68333 2 5.14583 2.62917 3.8875 3.8875C2.62917 5.14583 2 6.68333 2 8.5C2 10.3167 2.62917 11.8542 3.8875 13.1125C5.14583 14.3708 6.68333 15 8.5 15H11V16.35ZM8.475 13.975C8.75833 13.975 9 13.875 9.2 13.675C9.4 13.475 9.5 13.2333 9.5 12.95C9.5 12.6667 9.4 12.425 9.2 12.225C9 12.025 8.75833 11.925 8.475 11.925C8.19167 11.925 7.95 12.025 7.75 12.225C7.55 12.425 7.45 12.6667 7.45 12.95C7.45 13.2333 7.55 13.475 7.75 13.675C7.95 13.875 8.19167 13.975 8.475 13.975ZM7.75 10.8H9.25C9.25 10.3 9.3 9.95 9.4 9.75C9.5 9.55 9.81667 9.18333 10.35 8.65C10.65 8.35 10.9 8.025 11.1 7.675C11.3 7.325 11.4 6.95 11.4 6.55C11.4 5.7 11.1125 5.0625 10.5375 4.6375C9.9625 4.2125 9.28333 4 8.5 4C7.76667 4 7.15 4.20417 6.65 4.6125C6.15 5.02083 5.8 5.51667 5.6 6.1L7 6.65C7.08333 6.36667 7.24167 6.0875 7.475 5.8125C7.70833 5.5375 8.05 5.4 8.5 5.4C8.95 5.4 9.2875 5.525 9.5125 5.775C9.7375 6.025 9.85 6.3 9.85 6.6C9.85 6.88333 9.76667 7.1375 9.6 7.3625C9.43333 7.5875 9.23333 7.81667 9 8.05C8.41667 8.55 8.0625 8.94583 7.9375 9.2375C7.8125 9.52917 7.75 10.05 7.75 10.8Z" fill="#1C1B1F"/>
</svg>

<svg width="17" height="20" fill="none" xmlns="http://www.w3.org/2000/svg"><path d="M9 20l-.25-3H8.5c-2.367 0-4.375-.825-6.025-2.475C.825 12.875 0 10.867 0 8.5c0-2.367.825-4.375 2.475-6.025C4.125.825 6.133 0 8.5 0a8.28 8.28 0 013.313.662 8.585 8.585 0 014.524 4.526A8.28 8.28 0 0117 8.5c0 1.25-.204 2.45-.613 3.6a12.739 12.739 0 01-1.675 3.2 14.164 14.164 0 01-2.524 2.675A15.65 15.65 0 019 20zm2-3.65c1.183-1 2.146-2.17 2.887-3.513A8.822 8.822 0 0015 8.5c0-1.817-.63-3.354-1.887-4.612C11.854 2.629 10.317 2 8.5 2c-1.817 0-3.354.63-4.612 1.888C2.629 5.146 2 6.683 2 8.5c0 1.817.63 3.354 1.888 4.613C5.146 14.37 6.683 15 8.5 15H11v1.35zm-2.525-2.375c.283 0 .525-.1.725-.3.2-.2.3-.442.3-.725s-.1-.525-.3-.725c-.2-.2-.442-.3-.725-.3s-.525.1-.725.3c-.2.2-.3.442-.3.725s.1.525.3.725c.2.2.442.3.725.3zM7.75 10.8h1.5c0-.5.05-.85.15-1.05.1-.2.417-.567.95-1.1.3-.3.55-.625.75-.975.2-.35.3-.725.3-1.125 0-.85-.287-1.487-.863-1.912C9.963 4.213 9.284 4 8.5 4c-.733 0-1.35.204-1.85.612-.5.409-.85.905-1.05 1.488l1.4.55a2.32 2.32 0 01.475-.838C7.708 5.537 8.05 5.4 8.5 5.4c.45 0 .787.125 1.012.375.226.25.338.525.338.825 0 .283-.083.538-.25.763a6.2 6.2 0 01-.6.687c-.583.5-.938.896-1.063 1.188-.125.291-.187.812-.187 1.562z" fill="#1C1B1F"/></svg>
